X: 10
T: Kilnamona
R: barndance
M: 4/4
L: 1/8
K: Dmaj
|: d>B |(3ABA (3FGA D>E (3FGA | (3ABA G2 E2- E>F | G2 E2 B>EG>A | (3BcB A>G F>DC>D |
ADFA DAFG | A2 G2 E2- E>F | G2 E2 B>A^G>A | D2 (3DDD D2 :|
|: (3Ade |f2- f>f f>ed>f | e2- e>e e>dB>c | d>ed>B (3ABA (3FGA | B>e (3eee e>Ad>e |
f>A (3def A>f (3agf | e>Ac>e A>ec>e | d2 (3edB A2 (3FGA | B>d (3ddd d2 :|


Tune 163	Setting 12791

